X: 5
T: Joe Derrane's
B: sean kenan irish music
M:6/8
Q: 3/8=100
K:Bminor
V:1 
|:"Bm"BcB BAF|"D"AFE "A"EFE|"D"DFA def|"Bm"afe "D"dBA|
"Bm" BcB BAF|AFE "A"EFE|"D"DFA def|1 "Bm"edB Bdc:|2 "Bm"edB Bcd||
|:"A" efe edB|"D"AFF "Bm" dFF|"D"def afa|"Bm"b2f "D"afa|
 "Bm"baf "D"afa|"Bm"baf "Em"edB|"D"def "A"afe|1 "Bm"dBA Bcd:|2 "Bm"dBA Bdc||
% abcbook-tune_id 9882


% abcbook-boost 0
% abcbook-tablature 
% abcbook-transpose 
% abcbook-lastupdated 1656500988003
% abcbook-soundfonts 
% abcbook-repeats 1


